X:1
T:Bluemont Waltz
C:Rodney Miller
S:Bernie Waugh
B:The Waltz Book p.16 (1992)
N:From Karen Myers 2007-2-9
R:Waltz
M:3/4
L:1/8
K:A
|: AB |\
"A"c4ec | "E"B3dcB | "F#m"AF3FG | F4E2 |\
"D"D3E FD | "A"E2c2BA |[1 "Bm"B6- | "E"B4 :|\
[2 "A"A6 | "A7"c2 d2 eA ||
|:\
"D"f6 | "E"e3f ed | "A"dc3cd | "(F#m)"c4B2 |\
"D"A6 | "E"B4Ae | "A"c6 | "(F#m)"c2B2A2 |
"Bm"B4Bc | "E"B4AF | "A"EA3AE | "F#m"FA3E2 |\
"D"D3E FD | "E"E2c2BA |"A"A6 |[1 "A7"c2d2eA :|[2 "A"A4 |]
